!!!OTL: Das mannstolle Maedchen
!!!OTL-incipit:Ein meydlin an dem laden lag,
!!!ARE: Europa, Mitteleuropa, Deutschland
!!!YOR: 6, S. 76
!!    1535 gedruckt in Frankfurt a.M.
!!!SCT: Q0126
!!!TXL: @@DE
!!!YEM: Copyright 1995, estate of Helmut Schaffrath.
**kern	**text
*ICvox	*
!! Irregular meter.
*MX	*
*met(c|)	*
*k[f#]	*
*G:	*
2r	.
4r	.
{4g	1._Ein
=1-	=1-
4g	meyd-
4a	-lin
4b	an
2cc	dem
=2-	=2-
4b	la-
2a	-den
4g}	lag,
{4g	vnd
=3-	=3-
4dd	es
2a	schrey
2dd	ü-
4cc	-ber-
=4-	=4-
2dd	-laut:
4r}	.
=5-	=5-
{2dd	'Het
=6-	=6-
4cc	ich
4a	ein
4b	jun-
4cc	-gen
=7-	=7-
2dd	kna-
2cc}	-ben,
{(8bL	der
8aJ)	.
=8-	=8-
2g	mir
4g	die
(4.a	lau-
8bL	.
4cc	-ten
=9-	=9-
2dd}	schlüg,
{(4dd	vnd
4cc)	.
=10-	=10-
(8bL	ein
8aJ)	.
(2g	kley-
8aL	.
8b	.
8cc	.
8ddJ)	.
4ee	-nes
4.dd	geig-
8b	-lin
=11-	=11-
4cc	mit
2a	jm
1g;}	trüg.'
==	==
!!!AGN: Ballade, Werbung, Betrug
!! Zaesuren vom Abdruck auf S. 92 uebernommen.
!!!ONB: ESAC (Essen Associative Code) Database: BALLADE
!!!AMT: irregular
!!!AIN: vox
!!!EED: Helmut Schaffrath
!!!EEV: 1.0
!!@@COMMENT:"Reutterliedlin 1585, Nr. XII."
!!@@END:
!!!source: Deutsche Volkslieder mit ihren Melodien Balladen. Herausgegeben vom Deutschen Volksliedarchiv. Sechster Band. Freiburg/Breisgau 1976.
!!!page: 76
!!!ENC: Anna Maria Matuszewska
!!!EEV: 2025/03/06
*-	*-
